app/images/dist/icons/icon-time.svg

<svg width="30" height="30" viewBox="0 0 30 30" fill="none" xmlns="http://www.w3.org/2000/svg">
<g opacity="0.5">
<path d="M15 2.5C8.1075 2.5 2.5 8.1075 2.5 15C2.5 21.8925 8.1075 27.5 15 27.5C21.8925 27.5 27.5 21.8925 27.5 15C27.5 8.1075 21.8925 2.5 15 2.5ZM15 25C9.48625 25 5 20.5137 5 15C5 9.48625 9.48625 5 15 5C20.5138 5 25 9.48625 25 15C25 20.5137 20.5138 25 15 25Z" fill="#393939"/>
<path d="M16.25 8.75024H13.75V15.5177L17.8663 19.634L19.6337 17.8665L16.25 14.4827V8.75024Z" fill="#393939"/>
</g>
</svg>

<svg width="30" height="30" fill="none" xmlns="http://www.w3.org/2000/svg"><g opacity=".5" fill="#393939"><path d="M15 2.5C8.107 2.5 2.5 8.107 2.5 15c0 6.892 5.607 12.5 12.5 12.5 6.892 0 12.5-5.608 12.5-12.5 0-6.893-5.608-12.5-12.5-12.5zM15 25C9.486 25 5 20.514 5 15S9.486 5 15 5s10 4.486 10 10-4.486 10-10 10z"/><path d="M16.25 8.75h-2.5v6.768l4.116 4.116 1.768-1.768-3.384-3.383V8.75z"/></g></svg>
